X:1
T:Glad Welcome We Sing
T:Glad Welcome We Sing
T:Moreton W. Owen 
T:Dwight E. Marvin, 1897
T:Public Domain Courtesy of the Cyber Hymnal™
T:Public Domain Courtesy of the Cyber Hymnal™
C:Moreton W. Owen
Z:Public Domain
Z:Courtesy of the Cyber Hymnal™
%%score ( 1 2 ) ( 3 4 ) ( 5 6 )
L:1/8
Q:1/4=107
M:4/4
K:Ab
V:1 treble 
V:2 treble 
V:3 treble 
V:4 treble 
V:5 bass 
V:6 bass 
V:1
 c3 c d2 c2 | B2 G2 F2 E2 | E3 F G2 A2 | c2 B2 B4 | c3 c d2 c2 | B2 G2 F2 E2 | A3 G F2 c2 | %7
w: 1.~In love’s fel- low-|ship we meet you|Here the Gos- pel|to pro- claim,|And with song of|joy we greet you|In the Sav- ior’s|
w: 2.~Je- sus walk- ing|close be- side you,|While the hours are|go- ing by,|Will with ho- ly|coun- sels guide you,|And with grace your|
w: 3.~He will ne’er for-|sake nor leave you,|When by sin you|grieve Him sore,|But will gra- cious-|ly re- ceive you,|And your wan- dering|
w: 4.~All through life may|peace at- tend you,|Giv- ing calm and|sweet re- pose,|And the powers of|Heav’n de- fend you,|From un- seen and|
 B2 =D2 E4 ||[Q:1/4=115]"^Refrain" [CA]4 [CE]4 | [Ec]4 [EA]2 [Ae]2 | [Ae]4 [Ad]2 A2 | %11
w: ho- ly name.||||
w: needs sup- ply.|Wel- come,|wel- come, Glad|wel- come we|
w: heart re- store.||||
w: o- pen foes.||||
 ([Ac]4 [GB]4) | e4 [Ff]2 [Fc]2 | (e2 d2) [Fc]2 [FB]2 | [EA]4 [Gc]2 [GB]2 | A8 |] %16
w: |||||
w: sing, *|Join us in|prais- * ing Our|Sav- ior and|king.|
w: |||||
w: |||||
V:2
 x8 | x8 | x8 | x8 | x8 | x8 | x8 | x8 || x8 | x8 | x6 A2 | x8 | (A2 _G2) x4 | F4 x4 | x8 | A8 |] %16
V:3
 [EAc]3 [EAc] [FAd]2 [EAc]2 | [DGB]2 [B,DG]2 [A,DF]2 [B,DE]2 | [CE]3 [CEF] [CEG]2 [CEA]2 | %3
 [CEc]2 [=DFB]2 B4 | [CEc]3 [EAB] [FAc]2 [EAc]2 | [DGB]2 [B,DG]2 [A,DG]2 [B,E]2 | %6
 [A,EA]3 [C=EG] [CF]2 [_EFc]2 | [=DFB]2 [B,D]2 [B,E]4 || x8 | x8 | x8 | x8 | x8 | x8 | x8 | x8 |] %16
V:4
 x8 | x8 | x8 | x4 [_D-EF]2 D2 | x8 | x8 | x8 | x8 || x8 | x8 | x8 | x8 | x8 | x8 | x8 | x8 |] %16
V:5
 [A,,E,]3 [A,,E,] [A,,E,]2 [A,,E,]2 | [A,,E,]2 [A,,E,]2 [A,,F,]2 [A,,G,]2 | %2
 [A,,A,]3 [A,,A,] [G,,A,]2 [F,,A,]2 | [B,,F,]2 [B,,A,]2 [E,,E,G,]4 | %4
 [A,,A,]3 [A,,E,] [A,,E,]2 [A,,E,]2 | E,2 E,2 [E,F,]2 [D,G,]2 | [C,A,]3 [B,,B,] [=A,,C]2 [A,,F,]2 | %7
 F,G, [B,,A,]2 [E,,E,G,]4 || [A,,E,]4 [A,,A,]4 | [A,C]4 [A,C]2 [_G,C]2 | [F,D]4 [F,D]2 [_F,D]2 | %11
 E8 | [CE]2 [B,D]2 [=A,C]2 [F,A,]2 | C2 B,2 [C,_A,]2 [D,B,]2 | [E,C]4 [E,E]2 [E,D]2 | [A,,C]8 |] %16
V:6
 x8 | x8 | x8 | x8 | x8 | x8 | x8 | B,,2 x6 || x8 | x8 | x8 | E,6 D2 | x8 | B,,4 x4 | x8 | x8 |] %16

